X:424
T:Stoney Point
C:Traditional
N:Transcribed by Mike Stangeland
R:bluegrass
L:1/8
Q:1/4=232
M:4/4
K:G
z6 EF |: "G "G2 ge dg ed | B2 ge dc BA | G2 ge dg ed | "D"BA GB AG ED | "G "G2 ge dg ed | 
B2 ge dc BA | G2 ge dg ed |1 f"D"d fa "G "g2 EF :|2 f"D"d fa "G "g2 Bd |: "Em"[ee][ee] [ee][ee] [e2e2] eg | 
"D"fe df ed B2 | "Em"[ee][ee] [ee][ee] [e2e2] ag | "D"fd fa "G "g2 Bd | "Em"[ee][ee] [ee][ee] [e2e2] eg | 
"D"fe df ed B2 | "G "eg fa "Em"ge dB |1 A"D"G FA "G "G2 Bd :|2 A"D"G FA "G "G4 | 


